src/img/editor/field/warning.svg

<svg xmlns="http://www.w3.org/2000/svg" width="587.486" height="550.8" viewBox="0 0 587.486 550.8"><path d="M584.778 519.586l-272.553-508.938c-3.795-6.579-10.833-10.648-18.483-10.648-7.682 0-14.72 4.07-18.482 10.649l-272.523 508.937c-3.703 6.457-3.643 14.414.151 20.811 3.825 6.457 10.771 10.404 18.299 10.404h545.108c7.497 0 14.505-3.947 18.299-10.404 3.795-6.397 3.855-14.354.184-20.811zm-260.436-29.986h-61.2v-61.201h61.2v61.201zm0-107.101h-61.2v-198.899h61.2v198.899z"/></svg>

<?xml version="1.0" encoding="utf-8"?>
<!-- Generator: Adobe Illustrator 16.0.0, SVG Export Plug-In . SVG Version: 6.00 Build 0)  -->
<!DOCTYPE svg PUBLIC "-//W3C//DTD SVG 1.1//EN" "http://www.w3.org/Graphics/SVG/1.1/DTD/svg11.dtd">
<svg version="1.1" id="Warning" xmlns="http://www.w3.org/2000/svg" xmlns:xlink="http://www.w3.org/1999/xlink" x="0px" y="0px"
	 width="587.486px" height="550.8px" viewBox="0 0 587.486 550.8" enable-background="new 0 0 587.486 550.8" xml:space="preserve">
<path fill="#F2BD19" d="M584.778,519.586L312.225,10.648C308.43,4.069,301.392,0,293.742,0c-7.682,0-14.72,4.07-18.482,10.649
	L2.737,519.586c-3.703,6.457-3.643,14.414,0.151,20.811c3.825,6.457,10.771,10.404,18.299,10.404h545.108
	c7.497,0,14.505-3.947,18.299-10.404C588.389,534,588.449,526.043,584.778,519.586z M324.342,489.6h-61.2v-61.201h61.2V489.6z
	 M324.342,382.499h-61.2V183.6h61.2V382.499z"/>
</svg>
